X:1
T:Victory!
T:Victory!
T:Daniel Brink Towner
T:Benjamin McCall Barbour, 1911
T:Public Domain Courtesy of the Cyber Hymnal™
T:Public Domain Courtesy of the Cyber Hymnal™
C:Daniel Brink Towner
Z:Public Domain
Z:Courtesy of the Cyber Hymnal™
%%score ( 1 2 ) ( 3 4 )
L:1/8
Q:1/4=105
M:4/4
K:C
V:1 treble 
V:2 treble 
V:3 bass 
V:4 bass 
V:1
 [CE]>[DF] | [EG]2 [Ec]2 [GB]2 [FA]2 | [EG]6 [FA]>[CE] | [DF]6 [Fd]>[FB] | [Ec]6 [Ec]>[Ec] | %5
w: 1.~Can you|now, my bro- ther,|say, Vic- to-|ry, vic- to-|ry? Christ who|
w: 2.~Do you|feel the tempt- er|near? Vic- to-|ry, vic- to-|ry! Christ has|
w: 3.~You shall|know this ve- ry|hour Vic- to-|ry, vic- to-|ry! For when|
w: 4.~Will you|sing it all the|way? Vic- to-|ry, vic- to-|ry? Then the|
 [Fd]2 [FB]2 [FA]2 [FG]2 | [Ec]6 [Ec]>[Ec] | [Fd]2 [FB]2 [FA]2 G2 | [Ge]6 [Ge]>[Gd] | %9
w: bore your sins a-|way, On the|cross of Cal- va-|ry, Pur- chased|
w: won the vic- to-|ry; He has|set His peo- ple|free; Stand now|
w: Christ has sway with-|in, You are|vic- tor o’er all|sin, And the|
w: tempt- er will take|flight, Then your|path- way will be|bright, Then you’'ll|
 [Gc]2 [CG]2 [CE]2 [EG]2 | [FA]6 [Fd]>[Ec] | [DB]6 !fermata![Ge]>[Fd] | [Ec]6 || %13
w: for you on that|day, Vic- to-|ry, vic- to-|ry!|
w: in His li- ber-|ty— Vic- to-|ry, vic- to-|ry!|
w: fight you’'re sure to|win— Vic- to-|ry, vic- to-|ry!|
w: bring to o- thers|light— Vic- to-|ry, vic- to-|ry!|
"^Refrain" [DB]>[Ec] | [Fd]6 [Ge]>[Fd] | [Ec]6 [Ac]>[GB] | [FA]2 [FA]2 [FB]2 [Ec]2 | %17
w: ||||
w: ||||
w: Shout a-|loud! Vic- to-|ry! Take new|cour- age ev- ery|
w: ||||
 [Gd]6 [Ge]>[Gd] | [Gc]2 [EG]2 [CE]2 [EG]2 | [FA]6 d>d | (z2 !fermata![GBeg])[GBdg] x6 | [Gc]6 |] %22
w: |||||
w: |||||
w: day, Trust in|Je- sus all the|way, Vic- to-|* ry,|vic-|
w: |||||
V:2
 x2 | x8 | x8 | x8 | x8 | x8 | x8 | x6 G2 | x8 | x8 | x8 | x8 | x6 || x2 | x8 | x8 | x8 | x8 | x8 | %19
 x8 | (B6 G>G G2) | x6 |] %22
V:3
 [C,G,]>[C,G,] | [C,C]2 [C,G,]2 [C,C]2 [C,C]2 | [C,C]6 z2 | z2 [G,B,]>[G,B,] [G,B,]2 z2 | %4
w: ~ ~|~ ~ ~ ~|~|Vic- to- ry,|
 z2 [C,G,]>[C,G,] [C,G,]2 [C,G,]>[C,G,] | [G,B,]2 [G,D]2 [G,C]2 [G,B,]2 | [C,C]6 [C,G,]>[C,G,] | %7
w: vic- to- ry! ~ ~|~ ~ ~ ~|~ ~ ~|
 [G,B,]2 [G,D]2 [G,C]2 [G,B,]2 | [C,C]6 [C,C]>[D,B,] | [E,C]2 [E,C]2 [G,C]2 C2 | [F,C]6 z2 | %11
w: ~ ~ ~ ~|~ ~ ~|~ ~ ~ ~|~|
 z2 G,>G, G,2 !fermata![G,C]>[G,B,] | [C,C]6 || z2 | z2 [G,B,]>[G,B,] [G,B,]2 z2 | %15
w: Vic- to- ry! ~ ~|~||Shout a- loud!|
 z2 [C,G,]>[C,G,] [C,G,]2 [E,C]>[E,C] | [F,C]2 [F,C]2 [D,G,]2 [C,G,]2 | [G,B,]6 [G,B,]>[F,B,] | %18
w: Vic- to- ry! ~ ~|~ ~ ~ ~|~ ~ ~|
 [E,C]2 [E,C]2 [G,C]2 C2 | [F,C]6 F>E | z2 G,2{!fermata!D} !fermata![G,C][G,F] x4 | [C,CE]6 |] %22
w: ~ ~ ~ ~|~ ~ ~|Vic- to- ry!||
V:4
 x2 | x8 | x8 | x8 | x8 | x8 | x8 | x8 | x8 | x6 C2 | x8 | x2 G,>G, G,2 x2 | x6 || x2 | x8 | x8 | %16
 x8 | x8 | x6 C2 | x8 | D6 (G,>G,) x2 | x6 |] %22

